X: 24708
T: MacPhibín's
R: jig
M: 6/8
K: Aminor
eAA ABc|BAB GBd|eAA ABc|dBG GAB|
eAA ABc|BAB GBd|edB cBG|ABA A3:|
|:EAA BcB|GGG ABc|AAA Bcd|BGG A2B|
EAA BcB|GGG ABc|edB cBG|ABA A3:|
|:AAA eAd|BcB G3|AAA gAf|ded BAG|
AAA eAd|BcB G3|edB cBG|ABA A3:|

